communes/95.svg

<?xml version="1.0" encoding="UTF-8" standalone="no"?>
<!-- Created with Inkscape (http://www.inkscape.org/) -->
<svg
   xmlns:svg="http://www.w3.org/2000/svg"
   xmlns="http://www.w3.org/2000/svg"
   xmlns:xlink="http://www.w3.org/1999/xlink"
   version="1.0"
   width="238.24271"
   height="279.06418"
   id="svg2780">
  <defs
     id="defs2782" />
  <g
     transform="translate(-6.4020661,-793.80816)"
     id="layer1">
    <path
       d="M 7.402066,794.80816 L 11.697383,975.22208 C 14.765459,1104.0891 236.28138,1104.0891 239.34946,975.22208 L 243.64478,794.80816 L 7.402066,794.80816 z"
       id="path3282"
       style="fill:#c63121;fill-opacity:1;fill-rule:evenodd;stroke:none;stroke-width:1.99999988;stroke-linecap:butt;stroke-miterlimit:4;stroke-dashoffset:0;stroke-opacity:1" />
    <path
       d="M 124.03125,21.1875 C 74.721989,21.1875 34.687502,61.221988 34.6875,110.53125 C 34.6875,112.93906 34.781412,115.32765 34.96875,117.6875 L 63.03125,117.6875 C 62.757975,115.33781 62.59375,112.95381 62.59375,110.53125 C 62.593751,76.621091 90.121091,49.09375 124.03125,49.09375 C 157.94141,49.093749 185.4375,76.621091 185.4375,110.53125 C 185.4375,112.95381 185.27298,115.33781 185,117.6875 L 213.0625,117.6875 C 213.2497,115.32765 213.34375,112.93906 213.34375,110.53125 C 213.34375,61.221989 173.34051,21.1875 124.03125,21.1875 z"
       transform="translate(0,804.33069)"
       id="path3609"
       style="opacity:1;color:#000000;fill:#ffffff;fill-opacity:1;fill-rule:evenodd;stroke:#000000;stroke-width:1pt;stroke-linecap:butt;stroke-linejoin:miter;marker:none;marker-start:none;marker-mid:none;marker-end:none;stroke-miterlimit:4;stroke-dasharray:none;stroke-dashoffset:0;stroke-opacity:1;visibility:visible;display:inline;overflow:visible;enable-background:accumulate" />
    <g
       id="g3353">
      <path
         d="M 34.164056,913.33692 C 30.12183,952.32463 13.568198,927.41831 25.934758,915.45659 C 21.733493,908.01977 25.21015,900.63532 29.924721,900.7436 C 34.325531,900.84181 35.433071,904.64621 34.164056,913.33692 z"
         id="path2495"
         style="color:#000000;fill:#ffffff;fill-opacity:1;fill-rule:evenodd;stroke:#000000;stroke-width:1px;stroke-linecap:butt;stroke-linejoin:miter;marker:none;marker-start:none;marker-mid:none;marker-end:none;stroke-miterlimit:4;stroke-dasharray:none;stroke-dashoffset:0;stroke-opacity:1;visibility:visible;display:inline;overflow:visible;enable-background:accumulate" />
      <path
         d="M 63.15774,915.45291 C 65.133093,943.71933 84.22337,937.38511 71.563371,917.66075 C 75.764636,910.22393 72.111646,902.75131 67.397075,902.85959 C 62.996265,902.9578 63.29939,906.93854 63.15774,915.45291 z"
         id="path3271"
         style="color:#000000;fill:#ffffff;fill-opacity:1;fill-rule:evenodd;stroke:#000000;stroke-width:1px;stroke-linecap:butt;stroke-linejoin:miter;marker:none;marker-start:none;marker-mid:none;marker-end:none;stroke-miterlimit:4;stroke-dasharray:none;stroke-dashoffset:0;stroke-opacity:1;visibility:visible;display:inline;overflow:visible;enable-background:accumulate" />
      <path
         d="M 28.92723,913.96035 C 27.32564,911.18387 27.585403,906.46568 29.301289,906.47917 C 31.653356,906.49675 32.607806,910.6299 32.044388,914.83316 L 49.126416,921.56622 L 66.722317,916.41756 C 66.049733,912.11394 65.882366,909.02833 68.115259,909.11898 C 70.775787,909.22699 69.985907,912.455 69.669408,916.46035 L 78.677077,929.9202 L 51.440139,950.25295 L 24.687894,936.40389 L 19.326382,920.06998 L 28.92723,913.96035 z"
         id="path2497"
         style="fill:#000000;fill-opacity:1;fill-rule:evenodd;stroke:none;stroke-width:1px;stroke-linecap:butt;stroke-linejoin:miter;stroke-opacity:1" />
      <path
         d="M 77.117109,925.58384 C 72.884904,923.5439 68.931255,925.45065 66.420302,928.34644 C 62.7626,932.56473 57.186796,931.46932 55.826451,932.17711 C 53.149606,933.56988 49.970944,938.22382 41.55707,933.10413 C 36.965355,930.31016 35.791383,929.60703 29.520408,931.6898 L 31.487178,922.27229 C 28.439244,922.34337 23.948988,920.80031 21.471456,916.8339 C 19.718828,930.75468 28.133091,938.00976 31.419153,926.8663 C 36.056285,911.1412 46.557879,923.09983 41.380553,933.25615 C 26.986305,948.95221 65.854324,958.40378 55.6994,933.11914 C 52.308737,923.01147 63.650496,910.78045 66.522094,929.4247 C 68.355659,941.32937 77.217247,931.64306 77.117109,925.58384 z"
         id="path3328"
         style="fill:#ffffff;fill-opacity:1;fill-rule:evenodd;stroke:none;stroke-width:1px;stroke-linecap:butt;stroke-linejoin:miter;stroke-opacity:1" />
      <path
         d="M 73.064346,932.41918 C 70.564655,934.85805 66.717402,929.30332 68.826857,924.68338 C 75.106214,910.93088 61.065548,909.63241 58.353205,917.2022 C 49.153183,914.76376 47.312732,922.27949 53.149606,930.79301 C 59.213846,939.63815 56.793368,946.81109 49.251102,946.81109 C 41.58415,946.81109 39.106174,940.84087 43.640217,934.15954 C 46.575423,929.83424 56.12065,916.51664 41.271177,916.2047 C 35.433071,905.38221 28.448609,910.6299 29.675348,919.9453 C 30.676109,927.54471 28.021958,932.62743 25.186639,931.41644 C 22.15151,930.12011 22.280255,923.43795 23.189579,920.20018 C 23.999774,917.31537 26.916087,916.13805 29.84375,915.01819 C 30.014438,914.26457 30.264666,913.58815 30.5625,912.98694 C 21.134697,913.32307 10.877207,921.19236 17.717643,927.42546 C 19.139289,928.72088 20.998415,928.65777 20.697932,931.66581 C 19.534081,943.31675 33.108535,946.06297 32.66782,932.91268 C 32.13608,917.04631 47.090344,919.89473 40.149,931.91518 C 38.325968,935.07216 30.469908,937.75067 30.922211,942.88758 C 31.641741,951.05944 41.094556,957.23809 47.63018,950.74282 C 48.994489,949.38694 49.783156,950.50355 51.495457,951.36625 C 66.848876,959.10266 67.636182,941.1105 63.215972,937.57322 C 49.911863,926.9266 59.282582,917.8261 63.96409,922.81309 C 65.511816,924.46181 65.74063,931.1784 65.176606,935.36581 C 63.651776,946.6864 76.861229,946.56172 76.55741,934.65828 C 76.505982,932.64335 78.059646,931.67785 79.306505,930.92106 C 86.331077,926.65749 77.783561,914.74409 69.5625,915.04944 C 70.475733,916.54811 70.775788,918.76219 69.9375,921.73694 C 73.764446,922.53005 78.046567,927.55821 73.064346,932.41918 z"
         id="path3324"
         style="fill:#ffffff;fill-opacity:1;fill-rule:evenodd;stroke:#000000;stroke-width:1px;stroke-linecap:butt;stroke-linejoin:miter;stroke-opacity:1" />
    </g>
    <use
       transform="translate(149.44069,-0.600672)"
       id="use3372"
       x="0"
       y="0"
       width="248.03149"
       height="248.03149"
       xlink:href="#g3353" />
    <path
       d="M 148.49663,959.51848 C 148.49663,975.65443 137.8511,1025.1695 124.97394,1025.1695 C 112.09679,1025.1695 101.84026,975.65443 101.84026,959.51848 C 101.84026,943.38254 112.29129,930.2867 125.16845,930.2867 C 138.0456,930.2867 148.49663,943.38254 148.49663,959.51848 z"
       id="path2399"
       style="color:#000000;fill:#005a29;fill-opacity:1;fill-rule:evenodd;stroke:#000000;stroke-width:1.0000001pt;stroke-linecap:butt;stroke-linejoin:miter;marker:none;marker-start:none;marker-mid:none;marker-end:none;stroke-miterlimit:4;stroke-dashoffset:0;stroke-opacity:1;visibility:visible;display:inline;overflow:visible;enable-background:accumulate" />
    <path
       d="M 121.51501,990.02758 C 126.97073,1005.2132 128.33618,1040.4993 116.21739,1044.8532 C 104.09862,1049.207 83.062103,1020.9882 77.606386,1005.8026 C 72.150667,990.61692 77.558365,974.75874 89.677146,970.40485 C 101.79592,966.05096 116.05929,974.84194 121.51501,990.02758 z"
       id="path3617"
       style="color:#000000;fill:#005a29;fill-opacity:1;fill-rule:evenodd;stroke:#000000;stroke-width:1.0000001pt;stroke-linecap:butt;stroke-linejoin:miter;marker:none;marker-start:none;marker-mid:none;marker-end:none;stroke-miterlimit:4;stroke-dashoffset:0;stroke-opacity:1;visibility:visible;display:inline;overflow:visible;enable-background:accumulate" />
    <path
       d="M 67.75,209.28125 C 61.4699,209.30035 55.687441,211.57695 51.71875,216.125 C 44.781921,224.07447 45.531598,236.56286 52.71875,246.65625 C 69.771186,258.17215 90.577441,264.88588 112.03125,266.875 C 118.0305,255.99791 100.70803,227.91207 89.0625,217.75 C 82.603628,212.11392 74.867446,209.25961 67.75,209.28125 z"
       transform="translate(0,804.33069)"
       id="path3621"
       style="color:#000000;fill:#005a29;fill-opacity:1;fill-rule:evenodd;stroke:#000000;stroke-width:1.0000001pt;stroke-linecap:butt;stroke-linejoin:miter;marker:none;marker-start:none;marker-mid:none;marker-end:none;stroke-miterlimit:4;stroke-dashoffset:0;stroke-opacity:1;visibility:visible;display:inline;overflow:visible;enable-background:accumulate" />
    <use
       transform="matrix(-1,0,0,1,251.15173,0)"
       id="use3625"
       style="fill:#005a29;fill-opacity:1"
       x="0"
       y="0"
       width="248.03149"
       height="248.03149"
       xlink:href="#path3617" />
    <use
       transform="matrix(-1,0,0,1,251.15173,0)"
       id="use3627"
       style="fill:#005a29;fill-opacity:1"
       x="0"
       y="0"
       width="248.03149"
       height="248.03149"
       xlink:href="#path3621" />
    <path
       d="M 125.15625,207.4375 C 112.27909,207.4375 101.84375,220.5516 101.84375,236.6875 C 101.84375,246.16369 105.37816,258.34355 110.90625,266.78125 C 120.26569,267.72283 129.75616,267.75058 139.125,266.875 C 144.79907,258.43396 148.5,246.19854 148.5,236.6875 C 148.5,220.5516 138.0334,207.43751 125.15625,207.4375 z"
       transform="translate(0,804.33069)"
       id="path3623"
       style="color:#000000;fill:#005a29;fill-opacity:1;fill-rule:evenodd;stroke:#000000;stroke-width:1.0000001pt;stroke-linecap:butt;stroke-linejoin:miter;marker:none;marker-start:none;marker-mid:none;marker-end:none;stroke-miterlimit:4;stroke-dashoffset:0;stroke-opacity:1;visibility:visible;display:inline;overflow:visible;enable-background:accumulate" />
    <path
       d="M 7.402066,794.80816 L 11.697383,975.22208 C 14.765459,1104.0891 236.28138,1104.0891 239.34946,975.22208 L 243.64478,794.80816 L 7.402066,794.80816 z"
       id="path3253"
       style="fill:none;fill-opacity:1;fill-rule:evenodd;stroke:#000000;stroke-width:1.99999988;stroke-linecap:butt;stroke-miterlimit:4;stroke-dashoffset:0;stroke-opacity:1" />
  </g>
</svg>

<?xml version="1.0" encoding="UTF-8"?>
<svg version="1.0" viewBox="0 0 238.24 279.06" xmlns="http://www.w3.org/2000/svg" xmlns:xlink="http://www.w3.org/1999/xlink">
<g transform="translate(-6.4021 -793.81)">
<path d="m7.4021 794.81 4.2953 180.41c3.0681 128.87 224.58 128.87 227.65 0l4.2953-180.41h-236.24z" fill="#c63121" fill-rule="evenodd"/>
<path transform="translate(0 804.33)" d="m124.03 21.188c-49.309 0-89.344 40.034-89.344 89.344 0 2.4078 0.093912 4.7964 0.28125 7.1562h28.062c-0.27328-2.3497-0.4375-4.7337-0.4375-7.1562 1e-6 -33.91 27.527-61.438 61.438-61.438 33.91-1e-6 61.406 27.527 61.406 61.438 0 2.4226-0.16452 4.8066-0.4375 7.1562h28.062c0.1872-2.3598 0.28125-4.7484 0.28125-7.1562 0-49.309-40.003-89.344-89.312-89.344z" color="#000000" fill="#fff" fill-rule="evenodd" stroke="#000" stroke-width="1pt"/>
<g id="c">
<path d="m34.164 913.34c-4.0422 38.988-20.596 14.081-8.2293 2.1197-4.2013-7.4368-0.72461-14.821 3.99-14.713 4.4008 0.09821 5.5084 3.9026 4.2393 12.593z" color="#000000" fill="#fff" fill-rule="evenodd" stroke="#000" stroke-width="1px"/>
<path d="m63.158 915.45c1.9754 28.266 21.066 21.932 8.4056 2.2078 4.2013-7.4368 0.54828-14.909-4.1663-14.801-4.4008 0.09821-4.0977 4.079-4.2393 12.593z" color="#000000" fill="#fff" fill-rule="evenodd" stroke="#000" stroke-width="1px"/>
<path d="m28.927 913.96c-1.6016-2.7765-1.3418-7.4947 0.37406-7.4812 2.3521 0.01758 3.3065 4.1507 2.7431 8.354l17.082 6.7331 17.596-5.1487c-0.67258-4.3036-0.83995-7.3892 1.3929-7.2986 2.6605 0.10801 1.8706 3.336 1.5541 7.3414l9.0077 13.46-27.237 20.333-26.752-13.849-5.3615-16.334 9.6008-6.1096z" fill-rule="evenodd"/>
<path d="m77.117 925.58c-4.2322-2.0399-8.1859-0.13319-10.697 2.7626-3.6577 4.2183-9.2335 3.1229-10.594 3.8307-2.6768 1.3928-5.8555 6.0467-14.269 0.92702-4.5917-2.794-5.7657-3.4971-12.037-1.4143l1.9668-9.4175c-3.0479 0.07108-7.5382-1.472-10.016-5.4384-1.7526 13.921 6.6616 21.176 9.9477 10.032 4.6371-15.725 15.139-3.7665 9.9614 6.3898-14.394 15.696 24.474 25.148 14.319-0.13701-3.3907-10.108 7.9511-22.339 10.823-3.6944 1.8336 11.905 10.695 2.2184 10.595-3.8409z" fill="#fff" fill-rule="evenodd"/>
<path d="m73.064 932.42c-2.4997 2.4389-6.3469-3.1159-4.2375-7.7358 6.2794-13.752-7.7613-15.051-10.474-7.4812-9.2-2.4384-11.04 5.0773-5.2036 13.591 6.0642 8.8451 3.6438 16.018-3.8985 16.018-7.667 0-10.145-5.9702-5.6109-12.652 2.9352-4.3253 12.48-17.643-2.369-17.955-5.8381-10.822-12.823-5.5748-11.596 3.7406 1.0008 7.5994-1.6534 12.682-4.4887 11.471-3.0351-1.2963-2.9064-7.9785-1.9971-11.216 0.8102-2.8848 3.7265-4.0621 6.6542-5.182 0.17069-0.75362 0.42092-1.43 0.71875-2.0312-9.4278 0.33613-19.685 8.2054-12.845 14.439 1.4216 1.2954 3.2808 1.2323 2.9803 4.2404-1.1639 11.651 12.411 14.397 11.97 1.2469-0.53174-15.866 14.423-13.018 7.4812-0.9975-1.823 3.157-9.6791 5.8355-9.2268 10.972 0.71953 8.1719 10.172 14.351 16.708 7.8552 1.3643-1.3559 2.153-0.23927 3.8653 0.62343 15.353 7.7364 16.141-10.256 11.721-13.793-13.304-10.647-3.9334-19.747 0.74812-14.76 1.5477 1.6487 1.7765 8.3653 1.2125 12.553-1.5248 11.321 11.685 11.196 11.381-0.70753-0.051428-2.0149 1.5022-2.9804 2.7491-3.7372 7.0246-4.2636-1.5229-16.177-9.744-15.872 0.91323 1.4987 1.2133 3.7128 0.375 6.6875 3.8269 0.79311 8.1091 5.8213 3.1268 10.682z" fill="#fff" fill-rule="evenodd" stroke="#000" stroke-width="1px"/>
</g>
<use transform="translate(149.44 -.60067)" width="248.03149" height="248.03149" xlink:href="#c"/>
<path d="m148.5 959.52c0 16.136-10.646 65.651-23.523 65.651-12.877 0-23.134-49.515-23.134-65.651 0-16.136 10.451-29.232 23.328-29.232 12.877 0 23.328 13.096 23.328 29.232z" color="#000000" fill="#005a29" fill-rule="evenodd" stroke="#000" stroke-width="1pt"/>
<path id="b" d="m121.52 990.03c5.4557 15.186 6.8212 50.472-5.2976 54.826-12.119 4.3538-33.155-23.865-38.611-39.051-5.4557-15.186-0.048021-31.044 12.071-35.398 12.119-4.3539 26.382 4.4371 31.838 19.623z" color="#000000" fill="#005a29" fill-rule="evenodd" stroke="#000" stroke-width="1pt"/>
<path id="a" transform="translate(0 804.33)" d="m67.75 209.28c-6.2801 0.0191-12.063 2.2957-16.031 6.8438-6.9368 7.9495-6.1872 20.438 1 30.531 17.052 11.516 37.859 18.23 59.312 20.219 5.9992-10.877-11.323-38.963-22.969-49.125-6.4589-5.6361-14.195-8.4904-21.312-8.4688z" color="#000000" fill="#005a29" fill-rule="evenodd" stroke="#000" stroke-width="1pt"/>
<use transform="matrix(-1 0 0 1 251.15 0)" width="248.03149" height="248.03149" fill="#005a29" xlink:href="#b"/>
<use transform="matrix(-1 0 0 1 251.15 0)" width="248.03149" height="248.03149" fill="#005a29" xlink:href="#a"/>
<path transform="translate(0 804.33)" d="m125.16 207.44c-12.877 0-23.312 13.114-23.312 29.25 0 9.4762 3.5344 21.656 9.0625 30.094 9.3594 0.94158 18.85 0.96933 28.219 0.09375 5.6741-8.441 9.375-20.676 9.375-30.188 0-16.136-10.467-29.25-23.344-29.25z" color="#000000" fill="#005a29" fill-rule="evenodd" stroke="#000" stroke-width="1pt"/>
<path d="m7.4021 794.81 4.2953 180.41c3.0681 128.87 224.58 128.87 227.65 0l4.2953-180.41h-236.24z" fill="none" stroke="#000" stroke-width="2"/>
</g>
</svg>
